chrome/icons/speaker.svg

<svg height="16" viewBox="0 81 1024 863" width="16" xmlns="http://www.w3.org/2000/svg" xmlns:xlink="http://www.w3.org/1999/xlink">
  <path d="M768,911.5C768,905.833 769.083,901.25 771.25,897.75C773.417,894.25 776.333,890.5 780,886.5C784.667,881.833 789.667,877.417 795,873.25C800.333,869.083 805.5,864.667 810.5,860C834.5,838 855.833,813.583 874.5,786.75C893.167,759.917 908.833,731.5 921.5,701.5C934.167,671.5 943.75,640.5 950.25,608.5C956.75,576.5 960,544.333 960,512C960,480 956.75,447.917 950.25,415.75C943.75,383.583 934.083,352.417 921.25,322.25C908.417,292.083 892.75,263.5 874.25,236.5C855.75,209.5 834.5,185.167 810.5,163.5C805.5,158.833 800.333,154.417 795,150.25C789.667,146.083 784.667,141.667 780,137C776,133 773,129.333 771,126C769,122.667 768,118 768,112C768,103 771.083,95.5001 777.25,89.5C783.417,83.5001 791,80.5001 800,80.5C804,80.5001 807.5,81.0834 810.5,82.25C813.5,83.4167 816.667,85.1667 820,87.5C835,97.1667 849.833,109.5 864.5,124.5C879.167,139.5 893.083,155.583 906.25,172.75C919.417,189.917 931.5,207.5 942.5,225.5C953.5,243.5 962.833,260.5 970.5,276.5C988.167,313.5 1001.5,351.75 1010.5,391.25C1019.5,430.75 1024,471 1024,512C1024,552.667 1019.5,592.917 1010.5,632.75C1001.5,672.583 988.167,710.833 970.5,747.5C962.833,763.167 953.5,780.083 942.5,798.25C931.5,816.417 919.333,834.083 906,851.25C892.667,868.417 878.667,884.5 864,899.5C849.333,914.5 834.667,926.833 820,936.5C816.333,938.833 813.083,940.583 810.25,941.75C807.417,942.917 804,943.5 800,943.5C791.333,943.5 783.833,940.333 777.5,934C771.167,927.667 768,920.167 768,911.5ZM211,704L96,704C83,704 70.6667,701.5 59,696.5C47.3333,691.5 37.0833,684.583 28.25,675.75C19.4167,666.917 12.5,656.667 7.5,645C2.5,633.333 0,621 0,608L0,416C0,403 2.5,390.667 7.5,379C12.5,367.333 19.4167,357.083 28.25,348.25C37.0833,339.417 47.3333,332.5 59,327.5C70.6667,322.5 83,320 96,320L211,320L366,164.5C370.667,159.833 375.917,156.417 381.75,154.25C387.583,152.083 393.667,151 400,151C413.667,151 425.083,155.5 434.25,164.5C443.417,173.5 448,184.833 448,198.5L448,825.5C448,832.167 446.75,838.333 444.25,844C441.75,849.667 438.25,854.75 433.75,859.25C429.25,863.75 424.083,867.25 418.25,869.75C412.417,872.25 406.333,873.5 400,873.5C386.667,873.5 375.333,868.833 366,859.5ZM642,796.5C642,790.833 642.917,786.5 644.75,783.5C646.583,780.5 649.333,776.833 653,772.5C671.333,751.833 687.667,732 702,713C716.333,694 728.333,674.417 738,654.25C747.667,634.083 755.083,612.5 760.25,589.5C765.417,566.5 768,540.667 768,512C768,483.333 765.417,457.5 760.25,434.5C755.083,411.5 747.667,389.917 738,369.75C728.333,349.583 716.333,330 702,311C687.667,292 671.333,272.167 653,251.5C649.333,247.167 646.583,243.5 644.75,240.5C642.917,237.5 642,233.167 642,227.5C642,218.833 645.25,211.417 651.75,205.25C658.25,199.083 665.833,196 674.5,196C679.5,196 683.333,196.583 686,197.75C688.667,198.917 692,201 696,204C706,211.667 715.917,221.083 725.75,232.25C735.583,243.417 744.917,255.333 753.75,268C762.583,280.667 770.667,293.583 778,306.75C785.333,319.917 791.5,332.333 796.5,344C820.167,397.333 832,453.333 832,512C832,570.667 820.167,626.667 796.5,680C791.833,690.667 785.75,702.75 778.25,716.25C770.75,729.75 762.5,743.083 753.5,756.25C744.5,769.417 735.083,781.667 725.25,793C715.417,804.333 705.667,813.333 696,820C692.333,822.333 688.917,824.25 685.75,825.75C682.583,827.25 678.833,828 674.5,828C665.833,828 658.25,824.917 651.75,818.75C645.25,812.583 642,805.167 642,796.5ZM384,786.5L384,237L246.5,374.5C240.167,380.833 232.667,384 224,384L96,384C87.3333,384 79.8333,387.167 73.5,393.5C67.1667,399.833 64,407.333 64,416L64,608C64,616.667 67.1667,624.167 73.5,630.5C79.8333,636.833 87.3333,640 96,640L224,640C232.667,640 240.167,643.167 246.5,649.5ZM518,674.5C518,669.833 518.583,666.167 519.75,663.5C520.917,660.833 522.833,657.667 525.5,654C533.167,642.333 540.167,631.083 546.5,620.25C552.833,609.417 558.167,598.417 562.5,587.25C566.833,576.083 570.167,564.417 572.5,552.25C574.833,540.083 576,526.667 576,512C576,497.667 574.833,484.333 572.5,472C570.167,459.667 566.833,447.917 562.5,436.75C558.167,425.583 552.833,414.583 546.5,403.75C540.167,392.917 533.167,381.667 525.5,370C522.833,366.333 520.917,363.167 519.75,360.5C518.583,357.833 518,354.167 518,349.5C518,340.833 521.167,333.333 527.5,327C533.833,320.667 541.333,317.5 550,317.5C555.667,317.5 560.333,318.5 564,320.5C567.667,322.5 571.333,325.5 575,329.5C585.667,341.167 595,354.25 603,368.75C611,383.25 617.75,398.583 623.25,414.75C628.75,430.917 632.917,447.333 635.75,464C638.583,480.667 640,496.667 640,512C640,526.667 638.583,542.417 635.75,559.25C632.917,576.083 628.75,592.75 623.25,609.25C617.75,625.75 610.917,641.417 602.75,656.25C594.583,671.083 585.333,683.833 575,694.5C568,702.167 559.667,706 550,706C541.333,706 533.833,702.917 527.5,696.75C521.167,690.583 518,683.167 518,674.5Z" fill="context-fill" fill-opacity="context-fill-opacity">
  </path>
</svg>

<svg xmlns="http://www.w3.org/2000/svg" width="16" height="16" viewBox="0 81 1024 863"><path fill="context-fill" fill-opacity="context-fill-opacity" d="M768 911.5q0-8.5 3.25-13.75T780 886.5a164 164 0 0 1 15-13.25A233 233 0 0 0 810.5 860q36-33 64-73.25t47-85.25 28.75-93T960 512q0-48-9.75-96.25a482.2 482.2 0 0 0-29-93.5 492.2 492.2 0 0 0-47-85.75q-27.75-40.5-63.75-73-7.5-7-15.5-13.25A164 164 0 0 1 780 137q-6-6-9-11t-3-14q0-13.5 9.25-22.5t22.75-9q6 0 10.5 1.75t9.5 5.25q22.5 14.5 44.5 37t41.75 48.25 36.25 52.75 28 51q26.5 55.5 40 114.75T1024 512q0 61-13.5 120.75t-40 114.75q-11.5 23.5-28 50.75t-36.5 53-42 48.25-44 37q-5.5 3.5-9.75 5.25T800 943.5q-13 0-22.5-9.5t-9.5-22.5M211 704H96q-19.5 0-37-7.5t-30.75-20.75T7.5 645 0 608V416q0-19.5 7.5-37t20.75-30.75T59 327.5t37-7.5h115l155-155.5q7-7 15.75-10.25T400 151q20.5 0 34.25 13.5t13.75 34v627q0 10-3.75 18.5t-10.5 15.25-15.5 10.5A45.9 45.9 0 0 1 400 873.5q-20 0-34-14Zm431 92.5q0-8.5 2.75-13t8.25-11q27.5-31 49-59.5t36-58.75 22.25-64.75T768 512t-7.75-77.5T738 369.75 702 311t-49-59.5q-5.5-6.5-8.25-11t-2.75-13q0-13 9.75-22.25T674.5 196q7.5 0 11.5 1.75t10 6.25q15 11.5 29.75 28.25t28 35.75T778 306.75 796.5 344Q832 424 832 512t-35.5 168q-7 16-18.25 36.25t-24.75 40T725.25 793 696 820q-5.5 3.5-10.25 5.75T674.5 828q-13 0-22.75-9.25T642 796.5m-258-10V237L246.5 374.5Q237 384 224 384H96q-13 0-22.5 9.5T64 416v192q0 13 9.5 22.5T96 640h128q13 0 22.5 9.5Zm134-112q0-7 1.75-11t5.75-9.5q11.5-17.5 21-33.75t16-33 10-35T576 512q0-21.5-3.5-40t-10-35.25-16-33-21-33.75q-4-5.5-5.75-9.5t-1.75-11q0-13 9.5-22.5t22.5-9.5q8.5 0 14 3t11 9q16 17.5 28 39.25t20.25 46a318 318 0 0 1 12.5 49.25q4.25 25 4.25 48 0 22-4.25 47.25t-12.5 50-20.5 47T575 694.5Q564.5 706 550 706q-13 0-22.5-9.25T518 674.5"/></svg>
